X:1
T:Blueberry Jig
C:By Andy DeJarlis
L:1/8
M:6/8
I:linebreak $
K:D
V:1 treble
V:1
"D" (3A/B/c/ || dAF DFA | dfb a2 f |"C" ge=c cBc | GAB =cBc |$
"D"  dAF DFA | dfb a2 f |"A7" gec ABc | "D" dfe d2 |$
|: f/g/|"D" a2 d a2 d | a3 b2 a |"C" g2 =c g2 c | g3 a2 g |$
 a2 d a2 d | a3 b2 a |"A7"  gec ABc |"D" dfe d2 :|
